build/img/icons/icon.svg

<svg width="152" height="152" viewBox="0 0 152 152" fill="none" xmlns="http://www.w3.org/2000/svg">
<rect width="152" height="152" rx="25" fill="#FF3F4A"/>
<path d="M53 34.0109H74.149C78.6647 33.9388 83.1789 34.2258 87.6483 34.8693C90.5201 35.3165 93.2943 36.2454 95.8518 37.6162C99.693 39.8082 102.817 43.0505 104.851 46.956C107.001 51.2747 108.058 56.0478 107.932 60.8627C108.206 64.5241 107.652 68.1999 106.31 71.6217C104.969 75.0435 102.874 78.1249 100.179 80.6409C95.0095 85.0819 87.3138 87.291 77.0912 87.2681H72.4183V118H53V34.0109ZM72.4183 48.0204V73.0868H76.9527C78.6177 73.2505 80.2989 73.0762 81.8937 72.5744C83.4886 72.0726 84.9637 71.2538 86.2292 70.1681C88.3394 67.3575 89.3258 63.8713 88.9982 60.3819C88.7989 58.2586 88.4882 57.1886 88 55.5C87.5118 53.8114 86.7556 52.7387 85.5 51.5C84.2444 50.2613 83 49.5 81.5 49C79.7951 48.525 78.5 48 76.4681 48.0204H72.4183Z" fill="#FF3F4A"/>
<path d="M53 34.0109H74.149C78.6647 33.9388 83.1789 34.2258 87.6483 34.8693C90.5201 35.3165 93.2943 36.2454 95.8518 37.6162C99.693 39.8082 102.817 43.0505 104.851 46.956C107.001 51.2747 108.058 56.0478 107.932 60.8627C108.206 64.5241 107.652 68.1999 106.31 71.6217C104.969 75.0435 102.874 78.1249 100.179 80.6409C95.0095 85.0819 87.3138 87.291 77.0912 87.2681H72.4183V118H53V34.0109ZM72.4183 48.0204V73.0868H76.9527C78.6177 73.2505 80.2989 73.0762 81.8937 72.5744C83.4886 72.0726 84.9637 71.2538 86.2292 70.1681C88.3394 67.3575 89.3258 63.8713 88.9982 60.3819C88.7989 58.2586 88.4882 57.1886 88 55.5C87.5118 53.8114 86.7556 52.7387 85.5 51.5C84.2444 50.2613 83 49.5 81.5 49C79.7951 48.525 78.5 48 76.4681 48.0204H72.4183Z" fill="white"/>
</svg>

<svg width="152" height="152" fill="none" xmlns="http://www.w3.org/2000/svg"><rect width="152" height="152" rx="25" fill="#FF3F4A"/><path d="M53 34.01h21.149c4.516-.071 9.03.216 13.5.86a25.754 25.754 0 018.203 2.746 22.983 22.983 0 018.999 9.34 29.47 29.47 0 013.081 13.907 24.462 24.462 0 01-1.622 10.759 24.642 24.642 0 01-6.131 9.019c-5.17 4.44-12.865 6.65-23.088 6.627h-4.673V118H53V34.01zm19.418 14.01v25.067h4.535c1.665.163 3.346-.01 4.94-.513a12.35 12.35 0 004.336-2.406A14.1 14.1 0 0089 60.382c-.2-2.123-.51-3.193-.999-4.882-.488-1.689-1.244-2.761-2.5-4-1.256-1.239-2.5-2-4-2.5-1.705-.475-3-1-5.032-.98h-4.05z" fill="#FF3F4A"/><path d="M53 34.01h21.149c4.516-.071 9.03.216 13.5.86a25.754 25.754 0 018.203 2.746 22.983 22.983 0 018.999 9.34 29.47 29.47 0 013.081 13.907 24.462 24.462 0 01-1.622 10.759 24.642 24.642 0 01-6.131 9.019c-5.17 4.44-12.865 6.65-23.088 6.627h-4.673V118H53V34.01zm19.418 14.01v25.067h4.535c1.665.163 3.346-.01 4.94-.513a12.35 12.35 0 004.336-2.406A14.1 14.1 0 0089 60.382c-.2-2.123-.51-3.193-.999-4.882-.488-1.689-1.244-2.761-2.5-4-1.256-1.239-2.5-2-4-2.5-1.705-.475-3-1-5.032-.98h-4.05z" fill="#fff"/></svg>
